!!!!SEGMENT: pl-kk--kk-i-1--055-002_anonim--missa-dominicale-et-in-terra.krn
!!!cenid: 15xx:776
!!!COM: Anonim
!!!COM-rismID: pe30004985
!!!CDT:
!!!CNT:
!!!OPR: [Missa] Dominicale
!!!OTL: Et in terra
!!!OMV: 002
!!!PDT:
!!!AGN:
!!!SMS-siglum: PL-Kk
!!!SMS-shelfmark: Kk.I.1
!!!SMS-shelfwork: 055-002 M
!!!SMS-variant:
!!!SMS-altvar:
!!!NIFC-rismSourceID: 300257954
!!!NIFC-rismChildID: 300258009
!!!NIFC-islandoraID: pl-kk:1
!!!URL-pdf-islandora: https://repozytorium.nifc.pl/islandora/object/pl-kk%3A1/datastream/PDF/view
!!!URL-scan: https://polish.musicsources.pl/pl/lokalizacje/galeria/rekopisy/5736 @EN{Scan on Polish Music Sources Website} @PL{Skany w portalu Dziedzictwo Muzyki Polskiej w otwartym dostępie}
!!!IIIF: https://repozytorium.nifc.pl/islandora/object/pl-kk%3A1/datastream/IIIF/view
!!!ONB-nifc: UWAGA: Cantus (s. 166r-173v, skan 0169-0176), Altus (s. 162v-170r, skan 0357-0363), Tenor (s. 141r-146r, skan 0532-0536), Bassus (s. 152r-159v, skan 0715-0722). Części Mszy: 1. Kyrie, 2. Et in terra, 3. Sanctus, 4. Agnus Dei
!!!AIN: 1 alto 1 bass 1 soprn 1 tenor
!!!key:
**kern	**text	**kern	**text	**kern	**text	**kern	**text
*part4	*part4	*part3	*part3	*part2	*part2	*part1	*part1
*staff4	*staff4	*staff3	*staff3	*staff2	*staff2	*staff1	*staff1
*I"BASSVS	*	*I"TENOR	*	*I"ALTVS	*	*I"CANTVS	*
*I'B	*	*I'T	*	*I'A	*	*I'S	*
*Ibass	*	*Itenor	*	*Ialto	*	*Isoprn	*
*ICvox	*	*ICvox	*	*ICvox	*	*ICvox	*
*clefF5	*	*clefC5	*	*clefC4	*	*clefC3	*
*stria6	*	*stria6	*	*stria6	*	*stria6	*
*k[]	*	*k[]	*	*k[]	*	*k[]	*
*C:	*	*C:	*	*C:	*	*C:	*
*M2/1	*	*M2/1	*	*M2/1	*	*M2/1	*
*met(C|)	*	*met(C|)	*	*met(C|)	*	*met(C|)	*
=1-	=1-	=1-	=1-	=1-	=1-	=1-	=1-
*xywh-#715:1426,3018,4501,985	*	*xywh-#532:1288,333,4497,1217	*	*xywh-#357:1284,509,4555,1037	*	*xywh-#169:5933,715,4673,939	*
!	!	!LO:TX:a:i:t=D(omi)nicis diebus. Feria 2da. et Feria 3tia.	!	!LO:TX:t=P:problem=inicjały I.B. pod pięciolinią, wpisane w wielką literę E	!	!	!
2rD	.	1G	Et	2d\	Et	2re	.
2G\	Et	.	.	2e\	in	2g\	Et
*	*	*lig	*	*	*	*	*
2A\	in	1c	in	2c\	ter-	2e\	in
2F\	ter-	.	.	2f\	-ra	2.a\	ter-
=2-	=2-	=2-	=2-	=2-	=2-	=2-	=2-
1G	-ra	1B	.	1.d	pax	.	.
.	.	.	.	.	.	4g\	.
.	.	.	.	.	.	1g	.
*	*	*Xlig	*	*	*	*	*
*	*	*lig	*	*	*ij	*	*
1D	pax	1A	.	.	.	.	.
!	!	!	!	!	!	!LO:TX:t=P:problem=# above	!
.	.	.	.	2d\	in	2f#X\	-ra
=3-	=3-	=3-	=3-	=3-	=3-	=3-	=3-
2rF	.	1G	.	2B/	ter-	2g\	pax
*	*ij	*	*	*	*	*	*ij
1G	et	.	.	2B/	-ra	1d	et
*	*	*Xlig	*	*	*	*	*
*	*	*lig	*	*	*	*	*
.	.	1B	ter-	2d\	pax	.	.
*	*	*	*	*	*Xij	*	*
2G\	in	.	.	2G/	ho-	2d\	in
=4-	=4-	=4-	=4-	=4-	=4-	=4-	=4-
2F\	ter-	1c	.	4A/	-mi-	2f\ny	ter-
.	.	.	.	4B/	.	.	.
2A\	-ra	.	.	1c	.	4e\	.
.	.	.	.	.	.	4f\	.
*	*	*Xlig	*	*	*	*	*
0G	pax	1d,	-ra	.	.	1g	.
.	.	.	.	4B/	.	.	.
.	.	.	.	4A/	.	.	.
=5-	=5-	=5-	=5-	=5-	=5-	=5-	=5-
.	.	1d	pax	2B\	.	2g\	-ra
.	.	.	.	2B\	-ni-	1g	pax
*	*	*lig	*	*	*	*	*Xij
2rD	.	1c	.	2c\	-bus,	.	.
*	*	*	*	*	*	*custos:d	*
2C/	et	.	.	1G/	et	2e\	.
!	!	!	!	!	!	!LO:LB:g=original	!
=6-	=6-	=6-	=6-	=6-	=6-	=6-	=6-
*	*	*	*	*	*	*xywh-#169:5978,1472,4595,972	*
2G\	in	1B	.	.	.	2.d\	.
1G	ter-	.	.	2d\	in	.	.
.	.	.	.	.	.	4d\	.
*	*	*Xlig	*	*	*	*	*
*	*	*lig	*	*	*	*	*
!	!	!	!	!LO:TX:t=P:problem=# above	!	!	!
.	.	1A	ho-	2c#X\	ter-	2e\	.
2F\	-ra	.	.	2d\	-ra	2f\	ho-
=7-	=7-	=7-	=7-	=7-	=7-	=7-	=7-
*custos:C	*	*	*	*	*	*	*
1E	pax	1B	.	2e\	pax	2g\	-mi-
*	*Xij	*	*	*	*	*	*
*	*	*	*	*custos:e	*	*	*
.	.	.	.	1e	ho:-	2g\	-ni-
*	*	*Xlig	*	*	*	*	*
*	*	*lig	*	*	*	*	*
!LO:PB:g=original	!	!	!	!	!	!	!
*xywh-#715:5908,515,4545,1050	*	*	*	*	*	*	*
2.C/	ho-	1c	-mi-	.	.	1g	-bus
!	!	!	!	!LO:LB:g=original	!	!	!
*	*	*	*	*xywh-#357:1525,1464,4266,851	*	*	*
.	.	.	.	1e\	-mi-	.	.
4D/	.	.	.	.	.	.	.
=8-	=8-	=8-	=8-	=8-	=8-	=8-	=8-
4E\	.	1B	.	.	.	2re	.
4F\	.	.	.	.	.	.	.
2G\	-mi-	.	.	2d\	-ni-	1g	bo-
*	*	*Xlig	*	*	*	*	*
*	*	*lig	*	*	*	*	*
1D	-ni-	1A	-ni-	2d\	-bus	.	.
!	!	!	!	!	!	!LO:TX:t=P:problem=# above	!
.	.	.	.	2d\	bo-	2f#X\	.
=9-	=9-	=9-	=9-	=9-	=9-	=9-	=9-
2GG/	-bus	1G	.	2B/	-nae	2g\	-nae
4C/	bo-	.	.	1cny	Vo-	1e	vo-
4D/	.	.	.	.	.	.	.
*	*	*Xlig	*	*	*	*	*
4E\	.	1G,	-bus	.	.	.	.
4F\	.	.	.	.	.	.	.
1G\	.	.	.	2B/	.	2d/	-lun-
=10-	=10-	=10-	=10-	=10-	=10-	=10-	=10-
.	.	1D	bo-	1A	-lun-	2d/	-ta-
2F#X\	-nae	.	.	.	.	2d/	-tis
*	*	*	*	*	*	*	*ij
*	*	*custos:A	*	*	*	*	*
2G\	vo-	1G	-nae	2B/	-ta-	2B/	vo-
2E\	-lun-	.	.	1G/	-tis,	2c/	-lun-
!	!	!LO:LB:g=original	!	!	!	!	!
=11-	=11-	=11-	=11-	=11-	=11-	=11-	=11-
*	*	*xywh-#532:1497,1426,4326,891	*	*	*	*	*
*	*	*lig	*	*	*	*	*
1D	-ta-	1A	vo-	.	.	1d	-ta-
!	!	!	!	!LO:TX:t=P:problem=# below	!	!	!
.	.	.	.	2F#X/	bo-	.	.
2GG/	-tis,	1G	.	2G/	-nae	2B/	.
*	*ij	*	*	*	*ij	*	*
2C/	bo-	.	.	2E/	vo-	2c/	-tis
*	*	*Xlig	*	*	*	*	*Xij
=12-	=12-	=12-	=12-	=12-	=12-	=12-	=12-
*	*	*lig	*	*	*	*	*
2D/	-nae	1F	-lun-	4F/ny	-lun-	4A/	vo-
.	.	.	.	4G/	.	4B/	.
2.AA/	vo-	.	.	1A	-ta-	4c/	.
.	.	.	.	.	.	4d/	.
.	.	1E	.	.	.	2e\	.
4BB/	.	.	.	.	.	.	.
*custos:GG	*	*	*	*	*	*	*
2C/	-lun-	.	.	2G/	.	1c/	-lun-
!LO:LB:g=original	!	!	!	!	!	!	!
*xywh-#715:5900,1464,4600,918	*	*	*	*	*	*	*
*	*	*Xlig	*	*	*	*	*
=13-	=13-	=13-	=13-	=13-	=13-	=13-	=13-
1GG	-ta-	1D	-ta-	0G	-tis	.	.
.	.	.	.	.	.	2B/	-ta-
*	*	*lig	*	*	*Xij	*	*
2C/	-tis	1E	.	.	.	2c/	-tis
*	*Xij	*	*	*	*	*lig	*
2C/	lau-	.	.	.	.	1c/	lau-
=14-	=14-	=14-	=14-	=14-	=14-	=14-	=14-
2FF/	-da-	1F	.	1A	lau-	.	.
2FF/	-m(us)	.	.	.	.	2.f\	.
*	*	*	*	*	*	*Xlig	*
*	*	*	*	*	*	*col	*
*	*	*Xlig	*	*	*	*	*
1C	te.	1G,	-tis.	2c\	-da-	.	.
.	.	.	.	.	.	8e\	.
.	.	.	.	.	.	8d\	.
*	*	*	*	*	*	*Xcol	*
.	.	.	.	2c\	-mus	2e\	.
=15-	=15-	=15-	=15-	=15-	=15-	=15-	=15-
*	*ij	*	*	*	*	*	*
*	*	*	*	*	*	*custos:a	*
1Fny	lau-	1A	lau-	2c\	te	2f\	-da-
*	*	*	*	*	*ij	*	*
!	!	!	!	!	!	!LO:LB:g=original	!
*	*	*	*	*	*	*xywh-#169:6004,2327,4412,966	*
.	.	.	.	2f\	lau-	2a\	-mus
*	*	*lig	*	*	*	*	*
2G\	.	1B	.	2d\	.	2g\	.
2G\	-da-	.	.	2d\	-da-	1g\	te
=16-	=16-	=16-	=16-	=16-	=16-	=16-	=16-
1C	.	1c	.	1e	.	.	.
.	.	.	.	.	.	2g\	.
*	*	*Xlig	*	*	*	*	*
1.G	.	1B	-da-	1d	-mus	2g\	.
.	.	.	.	.	.	2d/	.
=17-	=17-	=17-	=17-	=17-	=17-	=17-	=17-
.	.	1A	.	2c\	te	2e/	lau-
2F\	-m(us)	.	.	2d\	.	2f\	-da-
*lig	*	*	*	*	*Xij	*	*
1E	te	1G	.	4e\	.	4g\	.
*	*Xij	*	*	*	*	*	*
.	.	.	.	2B\	lau-	4e\	.
.	.	.	.	.	.	1g\	-mus
.	.	.	.	4c\	-da:-	.	.
=18-	=18-	=18-	=18-	=18-	=18-	=18-	=18-
*	*	*lig	*	*	*	*	*
1D	.	1A	-mus	2.d\	.	.	.
!	!	!	!	!	!	!LO:TX:a:t=P:problem=# above	!
.	.	.	.	.	.	2f#X\	te
*	*	*	*	*custos:B	*	*	*
.	.	.	.	4c\	.	.	.
!	!	!	!	!LO:LB:g=original	!	!	!
*	*	*	*	*xywh-#357:1532,2268,4232,845	*	*	*
*Xlig	*	*	*	*	*	*	*
2GG/	.	1G	.	2B\	-mus	2g\	.
1C/	be-	.	.	2c\	te	1e\	be-
*	*	*Xlig	*	*	*	*	*
=19-	=19-	=19-	=19-	=19-	=19-	=19-	=19-
*	*	*lig	*	*	*	*	*
.	.	1E	te.	2.G/	be-	.	.
2C/	-ne-	.	.	.	.	2c/	-ne-
.	.	.	.	4A/	-ne-	.	.
1.BB-X	-di-	1F,<	.	1.B-X	-di-	2.d\	-di-
.	.	.	.	.	.	4d/	-ci-
*	*	*Xlig	*	*	*	*	*
=20-	=20-	=20-	=20-	=20-	=20-	=20-	=20-
.	.	1D	be-	.	.	1d	-mus
2BB-/	-ci-	.	.	2B-/	-ci-	.	.
1GG	-mus	1G	-ne-	1B-	-mus	2d/	te
.	.	.	.	.	.	1g\	.
=21-	=21-	=21-	=21-	=21-	=21-	=21-	=21-
*	*	*lig	*	*	*	*	*
1D	te	1A	-di-	2A/	te	.	.
*	*	*	*	*	*ij	*	*
.	.	.	.	2d\	be-	2f\ny	.
*	*ij	*	*	*	*	*	*
2E\	be-	1G	.	2B\ny	-ne-	2e/	.
2C/	-ne-	.	.	2c\	-di-	2e/	.
*	*	*Xlig	*	*	*	*	*
=22-	=22-	=22-	=22-	=22-	=22-	=22-	=22-
*	*	*lig	*	*	*	*	*ij
1D	-di-	1F	-ci-	2A/	-ci-	2d/	.
.	.	.	.	2d\	-mus	2A/	be-
2AA/	-ci-	1E	.	2e\	te	2c/	.
*	*	*	*	*	*Xij	*	*
2C/	.	.	.	2E/	A-	4G/	-ne-
.	.	.	.	.	.	4A/	.
*	*	*Xlig	*	*	*	*	*
=23-	=23-	=23-	=23-	=23-	=23-	=23-	=23-
*	*	*custos:E	*	*	*	*	*
1GG	-mus	1D	.	2G/	-do-	4B/	-di-
.	.	.	.	.	.	2c/	-ci-
.	.	.	.	2G/	-ra-	.	.
.	.	.	.	.	.	4B/	-mus
!	!	!LO:LB:g=original	!	!	!	!	!
*	*	*xywh-#532:1520,2263,4318,922	*	*	*	*	*
*	*	*lig	*	*	*	*	*
2C/	te	1E	-mus	1G	-mus	2c/	te
*	*Xij	*	*	*	*	*	*Xij
1E\	a-	.	.	.	.	1g\	a-
=24-	=24-	=24-	=24-	=24-	=24-	=24-	=24-
.	.	1F	.	1A	te	.	.
1D	-do-	.	.	.	.	1f	-do-
*	*	*Xlig	*	*	*ij	*	*
.	.	1G	te.	2B/	A-	.	.
*custos:BB	*	*	*	*	*	*	*
2C/	-ra:-	.	.	2c\	-do-	2e\	-ra-
!LO:LB:g=original	!	!	!	!	!	!	!
=25-	=25-	=25-	=25-	=25-	=25-	=25-	=25-
*xywh-#715:5876,2313,4592,871	*	*	*	*	*	*	*
*	*	*	*	*	*	*custos:a	*
1BBny	-mus	1B	A-	1d	-ra-	1g	.
!	!	!	!	!	!	!LO:LB:g=original	!
*	*	*	*	*	*	*xywh-#169:6057,3215,4536,979	*
2AA/	te	1E	-do-	2c\	-mus	2a\	-mus
*	*ij	*	*	*	*	*	*
!	!	!	!	!	!	!LO:TX:t=P:problem=# above	!
1E\	a-	.	.	2B/	te	1g#X\	te
*	*	*	*	*	*Xij	*	*
=26-	=26-	=26-	=26-	=26-	=26-	=26-	=26-
*	*	*lig	*	*	*	*	*ij
.	.	1B	-ra-	2rF	.	.	.
2E\	-do-	.	.	2E/	a-	2g#\	a-
4AA/	-ra-	1c	.	2E/	-do-	2.a\	-do-
4BB/	.	.	.	.	.	.	.
4C/	.	.	.	4E/	-ra-	.	.
4D/	.	.	.	4F/	.	8g#\	.
.	.	.	.	.	.	8f\	.
*	*	*Xlig	*	*	*	*	*
=27-	=27-	=27-	=27-	=27-	=27-	=27-	=27-
*	*	*lig	*	*	*	*	*
4E\	.	1B	.	4G/	.	2e\	-ra-
4F\	.	.	.	4A/	.	.	.
1G	.	.	.	4B\	.	2d/	-mus
.	.	.	.	4c\	.	.	.
.	.	1A	.	4d\	.	1d	te
.	.	.	.	4A/	.	.	.
2F\	-mus	.	.	1d\	.	.	.
*	*	*Xlig	*	*	*	*	*Xij
=28-	=28-	=28-	=28-	=28-	=28-	=28-	=28-
1E	te	1G	.	.	.	2r	.
*	*Xij	*	*	*	*	*	*
!	!	!	!	!LO:TX:t=P:problem=# above	!	!	!
.	.	.	.	2c#X\	-mus	1gny	a-
*	*	*lig	*	*	*	*	*
*	*	*	*	*custos:B	*	*	*
1D	.	1A	-mus	1d	te	.	.
.	.	.	.	.	.	2f\	-do-
!	!	!	!	!LO:LB:g=original	!	!	!
=29-	=29-	=29-	=29-	=29-	=29-	=29-	=29-
*	*	*	*	*xywh-#357:1553,3058,4259,948	*	*	*
2r	.	1G,	.	2B\	a-	2d/	-ra-
2C/	a-	.	.	2c\ny	-do-	2e/	-mus
*	*	*Xlig	*	*	*	*	*
2C/	-do-	1E	te	1G	-ra-	2c/	te
2BB/	-ra-	.	.	.	.	2g\	glo-
=30-	=30-	=30-	=30-	=30-	=30-	=30-	=30-
*	*	*lig	*	*	*	*lig	*
1AA	-m(us)	1F	.	1c	-mus	1a	-ri-
2GG/	te	1G	.	1B	te	1d	.
2GG/	glo-	.	.	.	.	.	.
*	*	*Xlig	*	*	*	*Xlig	*
=31-	=31-	=31-	=31-	=31-	=31-	=31-	=31-
2C/	-ri-	1G	glo-	2c\	glo-	4e/	-fi-
.	.	.	.	.	.	4f/	.
2GG/	-fi-	.	.	2B\	.	2.g\	-ca-
2C/	-ca-	1A	-ri-	2e\	-ri-	.	.
.	.	.	.	.	.	8f\	.
.	.	.	.	.	.	8e\	.
2D/	-m(us)	.	.	2d\	-fi-	2f\	-mus
=32-	=32-	=32-	=32-	=32-	=32-	=32-	=32-
2GG/	te	1G	-fi-	2B\	-ca-	2g\	te
*	*ij	*	*	*	*	*	*
1C	glo-	.	.	2c\	-mus	1e	glo
*	*	*lig	*	*	*	*	*
.	.	1A	-ca-	2e\	te	.	.
*	*	*	*	*	*ij	*	*
1D\	-ri-	.	.	1d\	glo-	1f\	.
=33-	=33-	=33-	=33-	=33-	=33-	=33-	=33-
.	.	1B	.	.	.	.	.
1E	-fi-	.	.	2G/	-ri-	1g	.
*	*	*Xlig	*	*	*	*	*
*	*	*lig	*	*	*	*	*
.	.	1c	.	2c/	-fi-	.	.
2F\	.	.	.	2A/	-ca-	1a\	.
=34-	=34-	=34-	=34-	=34-	=34-	=34-	=34-
1G	-ca-	1B	.	2d\	-mus	.	.
*	*	*	*	*	*Xij	*	*
.	.	.	.	2d\	glo-	1g	.
*	*	*Xlig	*	*	*	*	*
*	*	*lig	*	*	*	*	*
1D	-m(us)	1A	-mus	2.d\	-ri-	.	.
.	.	.	.	.	.	2f\	.
.	.	.	.	4d\	-fi-	.	.
=35-	=35-	=35-	=35-	=35-	=35-	=35-	=35-
0GG;	te	1G	.	2d\	-ca-	0g;;	.
.	.	.	.	2B/	-mus	.	.
!	!	!LO:LB:g=original	!	!	!	!	!
*	*	*xywh-#532:1520,3039,4272,961	*	*	*	*	*
*	*Xij	*Xlig	*	*	*	*	*
.	.	1G	te.	1B;	te	.	.
=36-	=36-	=36-	=36-	=36-	=36-	=36-	=36-
1G	Gra-	1B	Gra-	1d	Gra-	1g	.
*	*	*	*	*	*	*2\right	*
2F\	-ti-	1c	-ti-	4A/	-ti-	2a\	.
.	.	.	.	4c\	-as	.	.
*custos:D	*	*	*	*	*	*	*
2E\	-as	.	.	2G/	a-	2g\	.
!LO:LB:g=original	!	!	!	!	!	!	!
=37-	=37-	=37-	=37-	=37-	=37-	=37-	=37-
*xywh-#715:5939,3107,4530,887	*	*	*	*	*	*	*
1D	a-	1d	-as	2A/	-gi-	2.f\	.
.	.	.	.	1d	-mus	.	.
.	.	.	.	.	.	4g\	.
*	*	*lig	*	*	*	*	*
1A	-gi-	1e	a-	.	.	2a\	.
!	!	!	!	!LO:TX:t=P:problem=# above	!	!LO:TX:t=P:problem=kreska pseudotaktowa	!
.	.	.	.	2c#X\	ti-	2a\	.
!	!	!	!	!	!	!LO:PB:g=original	!
=38-	=38-	=38-	=38-	=38-	=38-	=38-	=38-
*	*	*	*	*	*	*xywh-#170:1553,714,4237,967	*
*	*	*	*	*	*	*2\left	*
2D/	-m(us)	1d	.	2d\	-bi,	2f\	bi
4D/	ti-	.	.	1f	a-	2a\	a-
4E\	.	.	.	.	.	.	.
*	*	*Xlig	*	*	*	*	*
*	*	*lig	*	*	*	*	*
4F\	.	1c	-gi-	.	.	2a\	-gi-
4G\	.	.	.	.	.	.	.
2A\	.	.	.	2e\	-gi-	1a\	-mus
=39-	=39-	=39-	=39-	=39-	=39-	=39-	=39-
1E	.	1B	.	1e	-(mus)	.	.
!	!	!	!	!	!	!LO:TX:t=P:problem=# above	!
.	.	.	.	.	.	2g#X\	ti-
*	*	*Xlig	*	*	*	*	*
*	*	*lig	*	*	*	*	*
2AA/	-bi	1A	-mus	2.c\ny	ti-	2a\	-bi
2F\	pro-	.	.	.	.	1a\	pro-
.	.	.	.	4d\	.	.	.
=40-	=40-	=40-	=40-	=40-	=40-	=40-	=40-
*	*	*	*	*custos:e	*	*	*
1E	-pter	1B	.	2e\	-bi	.	.
!	!	!	!	!LO:PB:g=original	!	!	!
*	*	*	*	*xywh-#357:5953,657,4356,845	*	*	*
.	.	.	.	2e\	pro-	2g\ny	-pter
*lig	*	*Xlig	*	*	*	*	*
1D	ma-	1d	ti-	2A/	-pter	1f	ma-
.	.	.	.	2B/	ma-	.	.
=41-	=41-	=41-	=41-	=41-	=41-	=41-	=41-
1C	.	1G	-bi	1c	-gna(m)	1e	-gna(m)
*Xlig	*	*	*	*	*	*	*
1G	-gna(m)	1B	pro-	1r	.	1d	ma-
=42-	=42-	=42-	=42-	=42-	=42-	=42-	=42-
*	*ij	*	*	*	*ij	*	*
2r	.	1E,<	-pter	1G	pro-	2B/	-gna(m)
1C	pro-	.	.	.	.	2c/	gl(o-
*	*	*lig	*	*	*	*	*
!	!	!	!	!LO:TX:t=P:problem=# below	!	!	!
.	.	1D	ma-	2F#X/	-pter	2A/	-ri)-
2BB/	-pter	.	.	2G/	.	2B/	-am
=43-	=43-	=43-	=43-	=43-	=43-	=43-	=43-
*lig	*	*	*	*	*	*	*
1AA	ma-	1E	.	1A	ma-	1c	tu-
*	*	*Xlig	*	*	*	*	*
1GG	.	1G,<	-gna(m)	2D/	-gna(m)	1B	-a(m)
*	*	*	*	*	*Xij	*	*
.	.	.	.	1G/	glo-	.	.
*Xlig	*	*	*	*	*	*	*
=44-	=44-	=44-	=44-	=44-	=44-	=44-	=44-
*	*	*lig	*	*	*	*	*
1D	.	1A	glo-	.	.	2.d\	gl(o-
!	!	!	!	!LO:TX:t=P:problem=# below	!	!	!
.	.	.	.	2F#X/	-ri-	.	.
.	.	.	.	.	.	4c/	-ri)-
1GG	-gna(m)	1G	.	2G/	-am	2B/	-am
.	.	.	.	1d\	.	2B/	tu-
*	*Xij	*Xlig	*	*	*	*	*
=45-	=45-	=45-	=45-	=45-	=45-	=45-	=45-
*	*	*lig	*	*	*	*	*
1D	glo-	1F	-ri-	.	.	2A/	-a(m)
*	*	*	*	*	*	*	*ij
.	.	.	.	2A/	glo-	1a	gl(o
2AA/	-ri-	1E	.	2c\	-ri-	.	.
2BB/	-a(m)	.	.	4G/	-am	4e\	ri)-
.	.	.	.	4A/	.	4f\	.
*	*	*Xlig	*	*	*	*	*
=46-	=46-	=46-	=46-	=46-	=46-	=46-	=46-
*	*	*custos:E	*	*	*	*	*
1GG	tu-	1D,	-am	4B\	.	2g\	-am
.	.	.	.	2c\	tu-	.	.
.	.	.	.	.	.	2g\	tu-
.	.	.	.	4B\	.	.	.
!	!	!LO:PB:g=original	!	!	!	!	!
*	*	*xywh-#532:5772,388,4714,1147	*	*	*	*	*
0C;	-am.	1E	tu-	0c;	-am.	0g	-a(m)
*	*	*	*	*	*	*	*Xij
=47-	=47-	=47-	=47-	=47-	=47-	=47-	=47-
.	.	1E	-am.	.	.	.	.
2rF	.	1G	Do-	2.B/	Do-	1.d	Do-
1G\	Do-	.	.	.	.	.	.
.	.	.	.	8A/L	-mi-	.	.
.	.	.	.	8G/J	.	.	.
=48-	=48-	=48-	=48-	=48-	=48-	=48-	=48-
.	.	1D	-mi-	2A/	-ne	.	.
2F\	-mi-	.	.	2A/	.	2d\	-mi-
1E	-ne	1G,<	-ne	1B	.	2e\	-ne
.	.	.	.	.	.	2e\	.
=49-	=49-	=49-	=49-	=49-	=49-	=49-	=49-
*lig	*	*	*	*	*	*	*
1C	De-	1G	De-	1c	De-	2e\	De:-
!	!	!	!	!	!	!LO:LB:g=original	!
*	*	*	*	*	*	*xywh-#170:1539,1606,4271,837	*
.	.	.	.	.	.	4g\	.
.	.	.	.	.	.	4e\	.
*	*	*lig	*	*	*	*	*
1D	.	1F	-us	1A	-us	4f\	.
.	.	.	.	.	.	4e\	.
.	.	.	.	.	.	1d/	.
*Xlig	*	*	*	*	*	*	*
=50-	=50-	=50-	=50-	=50-	=50-	=50-	=50-
*custos:BB	*	*	*	*	*	*	*
1AA	-(us)	1E,<	.	1A	Rex	.	.
!	!	!	!	!	!	!LO:TX:t=P:problem=# below	!
.	.	.	.	.	.	2c#X/	.
!LO:PB:g=original	!	!	!	!	!	!	!
*xywh-#716:1367,686,4429,982	*	*	*	*	*	*	*
*	*	*Xlig	*	*	*	*	*
1BB	Rex	1D,<	rex	1Fny	cae-	2d/	-us
.	.	.	.	.	.	1d/	Rex
=51-	=51-	=51-	=51-	=51-	=51-	=51-	=51-
1GG	c(ae)-	1G	cae-	1B-X	-les-	.	.
.	.	.	.	.	.	2d\	c(ae)-
*	*	*lig	*	*	*	*	*
*	*	*	*	*custos:c	*	*	*
1D	-leſ-	1F	-leſ-	1A	-tis	1d	-leſ-
!	!	!	!	!LO:LB:g=original	!	!	!
=52-	=52-	=52-	=52-	=52-	=52-	=52-	=52-
*	*	*	*	*xywh-#357:5953,1516,4349,831	*	*	*
2GG/	-tis	1G	.	2r	.	2d\	-tis
1C	De-	.	.	1c	De-	1e	De-
*	*	*Xlig	*	*	*	*	*
.	.	1G,<	-tis	.	.	.	.
2E\	-(us)	.	.	2G/	-us	2c/ny	-us
=53-	=53-	=53-	=53-	=53-	=53-	=53-	=53-
1D	Pa-	1A	De-	1d	Pa-	1f	P(a-
2C/	-ter	1c,<	-us	1G	-ter	2e\	-te)r
1C/	om-	.	.	.	.	1e\	om-
=54-	=54-	=54-	=54-	=54-	=54-	=54-	=54-
.	.	1G	Pa-	2c\	om-	.	.
2C/	-ni-	.	.	2c\	-ni-	2e\	-ni-
*	*	*lig	*	*	*	*	*
1D	-po-	1F	-ter	1A	-po-	4f\	.
.	.	.	.	.	.	4e\	.
.	.	.	.	.	.	1d/	-po-
=55-	=55-	=55-	=55-	=55-	=55-	=55-	=55-
1AA	-tens	1E,<	.	1A	-tens	.	.
!	!	!	!	!	!	!LO:TX:t=P:problem=# below	!
.	.	.	.	.	.	2c#X/	.
*	*	*Xlig	*	*	*	*	*
*	*	*lig	*	*	*ij	*	*
2r	.	1D	om-	2.A/	om-	2d/	-tens
*	*	*	*	*	*	*	*ij
2D/	om-	.	.	.	.	2f\	om-
.	.	.	.	4B/ny	-ni-	.	.
=56-	=56-	=56-	=56-	=56-	=56-	=56-	=56-
2AA/	-ni-	1E	.	1c	-po-	2e\	.
2C/	-po-	.	.	.	.	2e\	-ni-
*	*	*Xlig	*	*	*	*	*
1GG	-tens	1G	-ni-	1B	-tens	2d/	-po-
.	.	.	.	.	.	1d/	-tens
=57-	=57-	=57-	=57-	=57-	=57-	=57-	=57-
*	*	*custos:E	*	*	*	*	*
2D,</	.	1F	-po-	2r	.	.	.
*	*ij	*	*	*	*	*	*
2D/	om-	.	.	1A	om-	2A/	om-
!	!	!LO:LB:g=original	!	!	!	!	!
*	*	*xywh-#532:5927,1420,4450,930	*	*	*	*	*
2AA/	.	1E	.	.	.	2c/ny	.
2C/	-ni-	.	.	4E/	-ni-	4G/	-ni-
.	.	.	.	4F/	.	4A/	.
=58-	=58-	=58-	=58-	=58-	=58-	=58-	=58-
1GG	-po-	1D	-tens	1G	-po-	4B/	-po-
.	.	.	.	.	.	2c/	.
.	.	.	.	.	.	4B/	.
1C;	-tens	1E	.	1G;	-tens	1c	-tens
*	*Xij	*	*	*	*Xij	*	*Xij
=59-	=59-	=59-	=59-	=59-	=59-	=59-	=59-
1G	Do-	1G	Do-	2.B/	Do-	2rA	.
.	.	.	.	.	.	1g	Do-
.	.	.	.	4c\	-mi-	.	.
2.A\	-mi-	1D	-mi-	2d\	-ne	.	.
.	.	.	.	4d\	.	2f\	-mi-
!LO:LB:g=original	!	!	!	!	!	!	!
*xywh-#716:1374,1507,4380,919	*	*	*	*	*	*	*
4A\	-ne	.	.	4c/	fi-	.	.
=60-	=60-	=60-	=60-	=60-	=60-	=60-	=60-
4G\	fi-	1G,<	-ne	4B/	.	2g\	-ne
4F\	.	.	.	4A/	.	.	.
4E\	.	.	.	2B/	.	4g\	fi-
*	*	*	*	*	*	*custos:e	*
4D/	.	.	.	.	.	4f\	.
!	!	!	!	!	!	!LO:LB:g=original	!
*	*	*	*	*	*	*xywh-#170:1567,2383,4257,871	*
4C/	.	1G	fi-	1c	.	4e\	.
4D/	.	.	.	.	.	4f\	.
4E\	.	.	.	.	.	4g\	.
4C/	.	.	.	.	.	4e\	.
=61-	=61-	=61-	=61-	=61-	=61-	=61-	=61-
1D	.	1F,<	-li	2A/	-li	1f	-li
.	.	.	.	2A/	u-	.	.
2AA/	-li	1A	V-	2c\	-ni-	1e	V-
1A\	V-	.	.	2c\	-ge-	.	.
=62-	=62-	=62-	=62-	=62-	=62-	=62-	=62-
.	.	1B	-ni-	2B/	-ni-	1e	-ni-
*	*	*	*	*custos:e	*	*	*
2G#X\	-ni-	.	.	2E/	-te	.	.
*	*	*lig	*	*	*	*	*
!	!	!	!	!LO:LB:g=original	!	!	!
*	*	*	*	*xywh-#357:5994,2354,4307,762	*	*	*
2A\	-ge-	1c	-ge-	2r	.	2e\	-ge-
2A\	-ni-	.	.	1e\	Je-	1a\	.
=63-	=63-	=63-	=63-	=63-	=63-	=63-	=63-
1E	-te	1B	.	.	.	.	.
!	!	!	!	!	!	!LO:TX:t=P:problem=# above	!
.	.	.	.	2e\	-sv	2g#X\	-ni-
*lig	*	*Xlig	*	*	*	*	*
*	*	*lig	*	*	*	*	*
1F	Je-	1A	-ni-	0c	CHR(i-	2a\	-te
.	.	.	.	.	.	1f\	.
=64-	=64-	=64-	=64-	=64-	=64-	=64-	=64-
1C	.	1G	.	.	.	.	.
.	.	.	.	.	.	4e\	Je-
.	.	.	.	.	.	4d\	.
*Xlig	*	*Xlig	*	*	*	*	*
1C	-ſu	1G	-te	1c	-st)e	2e\	-ſu
.	.	.	.	.	.	2e\	.
=65-	=65-	=65-	=65-	=65-	=65-	=65-	=65-
0D	Chri-	1F	Je-	1A	Je-	0f	Chr(i-
.	.	1A	-su	2d\	-sv	.	.
.	.	.	.	2.d\	CHR(i-	.	.
=66-	=66-	=66-	=66-	=66-	=66-	=66-	=66-
1AA	-ſte	1A	Chri-	.	.	1e	-st)e
.	.	.	.	8c\L	.	.	.
.	.	.	.	8B\J	.	.	.
!	!	!	!	!LO:TX:t=P:problem=# above	!	!	!
.	.	.	.	2c#X\	.	.	.
*	*	*custos:G	*	*	*	*	*
1r	.	1D	.	2d\	-st)e	2re	.
*	*	*	*	*	*	*	*ij
.	.	.	.	2A/	Je-	1f\	Je-
!	!	!LO:LB:g=original	!	!	!	!	!
=67-	=67-	=67-	=67-	=67-	=67-	=67-	=67-
*	*	*xywh-#532:5935,2180,4505,1023	*	*	*	*	*
1C	Je-	1G	.	2c\ny	-sv	.	.
.	.	.	.	2c\	CHr(i-	2e\	-ſu
*	*	*lig	*	*	*	*	*
2.FF/	-ſu	1F	.	2c\	-st)e	2.f\	Chr(i-
*	*	*	*	*	*ij	*	*
.	.	.	.	1A/	Je-	.	.
4GG/	.	.	.	.	.	8e\	.
.	.	.	.	.	.	8d\	.
=68-	=68-	=68-	=68-	=68-	=68-	=68-	=68-
4AA/	.	1E	.	.	.	4c/	.
4BB/	.	.	.	.	.	4d/	.
1C	.	.	.	2G/	-sv	2e\	-st)e
*	*	*Xlig	*	*	*	*	*
*	*	*lig	*	*	*	*	*
.	.	1D	.	2A/	CHr(i-	2f\	Je-
2BB/	.	.	.	2B/	-st)e	2g\ny	-ſu
*	*	*	*	*	*Xij	*	*
=69-	=69-	=69-	=69-	=69-	=69-	=69-	=69-
0AA	Chri-	1E	.	2.c\	Je-	0a	Chr(i-
.	.	.	.	4B/	-sv	.	.
*	*	*Xlig	*	*	*	*	*
.	.	1F	.	2A/	CHR(i-	.	.
.	.	.	.	2c\	.	.	.
=70-	=70-	=70-	=70-	=70-	=70-	=70-	=70-
*custos:G	*	*	*	*	*	*	*
!	!	!	!	!	!	!LO:TX:t=P:problem=kreska pseudotaktowa	!
1GG;	-ſte	1G	-ſte	1B;	-st)e.	1d;	-st)e
!LO:LB:g=original	!	!	!	!	!	!	!
*xywh-#716:1536,2307,4232,926	*	*	*	*	*	*	*
*	*	*	*	*	*	*	*Xij
1Gny	Do-	1d	Do-	2.B\	Do-	1g	Do-
.	.	.	.	4B\	-mi-	.	.
=71-	=71-	=71-	=71-	=71-	=71-	=71-	=71-
2F\	-mi-	1c	-mi-	1A	-ne	2a\	-mi-
2A\	-ne	.	.	.	.	2f\	-ne
1G	De-	1B,<	-ne	1d	De-	2.g\	.
.	.	.	.	.	.	4f\	De-
=72-	=72-	=72-	=72-	=72-	=72-	=72-	=72-
*	*	*	*	*custos:d	*	*	*
1C	-(us)	1c	De-	1e	-us	4e\	.
.	.	.	.	.	.	4f\	.
.	.	.	.	.	.	1g	.
*	*	*lig	*	*	*	*	*
!	!	!	!	!LO:LB:g=original	!	!	!
*	*	*	*	*xywh-#357:5994,3089,4376,865	*	*	*
1D	De-	1A	.	2.d\	A-	.	.
!	!	!	!	!	!	!LO:TX:t=P:problem=# above	!
.	.	.	.	.	.	2f#X\	.
.	.	.	.	4c\	-gnus	.	.
=73-	=73-	=73-	=73-	=73-	=73-	=73-	=73-
*	*	*	*	*	*	*custos:g	*
2GG/	-us	1G	.	1B	De-	2g\	-us
*	*	*	*	*	*	*xywh-#170:1546,3228,4210,817	*
!	!	!	!	!	!	!LO:TX:t=P:problem=# above	!
1G	A-	.	.	.	.	2g\	A-
*	*	*Xlig	*	*	*	*	*
.	.	1A,<	-us	2c\	-i	2e\	-gnus
*	*	*	*	*	*ij	*	*
2F\	-gn(us)	.	.	4c\	A-	2.a\	De-
.	.	.	.	4d\	-gnus	.	.
=74-	=74-	=74-	=74-	=74-	=74-	=74-	=74-
*	*	*	*	*lig	*	*	*
1E	De-	1B	a-	1e	De-	.	.
.	.	.	.	.	.	4g\	.
.	.	.	.	.	.	1g	-i
1D	-i	1d	-gnus	1A	.	.	.
!	!	!	!	!	!	!LO:TX:t=P:problem=# above	!
.	.	.	.	.	.	2f#X\	.
*	*	*	*	*Xlig	*	*	*
=75-	=75-	=75-	=75-	=75-	=75-	=75-	=75-
*	*	*lig	*	*	*	*	*
4C/	A-	1e	De-	2c\	-i	1g	.
*	*	*	*	*	*Xij	*	*
4D/	.	.	.	.	.	.	.
4E\	.	.	.	4G/	A-	.	.
4F\	.	.	.	4A/	.	.	.
*	*	*	*	*	*	*	*ij
4G\	.	1d	.	4B/	.	1g	A-
4A\	.	.	.	4c/	.	.	.
4B\	.	.	.	4d\	.	.	.
4G\	.	.	.	4B\	.	.	.
*	*	*Xlig	*	*	*	*	*
=76-	=76-	=76-	=76-	=76-	=76-	=76-	=76-
4A\	.	1c	.	4c\	.	2f\ny	.
4B\	.	.	.	4d\	.	.	.
2c\	-gn(us)	.	.	4e\	-gnus	2e\	-gnus
.	.	.	.	4c\	.	.	.
*	*	*lig	*	*	*	*	*
1G	De-	1B	.	2d\	De-	1d	De-
.	.	.	.	2G/	-i	.	.
=77-	=77-	=77-	=77-	=77-	=77-	=77-	=77-
*	*	*custos:d	*	*	*	*	*
1C	-i	1c	.	2r	.	1e	-i
*	*	*	*	*	*	*	*Xij
.	.	.	.	1c	fi-	.	.
!	!	!LO:LB:g=original	!	!	!	!	!
*	*	*xywh-#532:5989,3087,4427,876	*	*	*	*	*
*	*	*Xlig	*	*	*	*	*
1.G	fi-	1d,<	-i	.	.	1rg	.
.	.	.	.	4B/	.	.	.
.	.	.	.	4A/	.	.	.
=78-	=78-	=78-	=78-	=78-	=78-	=78-	=78-
.	.	1d	fi-	2B/	.	1.g	fi-
2G\	-li-	.	.	2B/	-li-	.	.
2.E\	-us	1G	-li-	1B	-us	.	.
.	.	.	.	.	.	2g\	-li-
4D/	.	.	.	.	.	.	.
=79-	=79-	=79-	=79-	=79-	=79-	=79-	=79-
*lig	*	*	*	*	*	*	*
1C	pa:-	1G,<	-us	2.c\	pa-	1e	-us
.	.	.	.	4B/	.	.	.
*custos:GG	*	*	*	*	*	*	*
!LO:TX:t=P:problem=kreska pseudotaktowa	!	!	!	!	!	!	!
*	*	*lig	*	*	*	*	*
1D	.	1F	pa-	1A	-tris	1d	.
!LO:LB:g=original	!	!	!	!	!	!	!
*xywh-#716:1437,3164,4358,877	*	*	*	*	*	*	*
*Xlig	*	*	*	*	*	*	*
=80-	=80-	=80-	=80-	=80-	=80-	=80-	=80-
2GG,</	-tris	1G	.	2B/	.	2d/	pa-
1GG	fi-	.	.	1B	fi-	1d	-tris
*	*	*Xlig	*	*	*	*	*
.	.	1G	-tris.	.	.	.	.
1C/	-li-	.	.	1c\	-li-	1e\	.
=81-	=81-	=81-	=81-	=81-	=81-	=81-	=81-
.	.	1G	Qui	.	.	.	.
*	*	*	*	*custos:A	*	*	*
2E\	-us	.	.	2G/	-u(s)	2c/	.
*	*	*	*	*	*	*	*ij
!	!	!	!	!LO:PB:g=original	!	!	!
*	*	*	*	*xywh-#358:1486,490,4345,1055	*	*	*
0D	pa-	1F	tol-	2.A/	pa-	2.d/	pa-
.	.	.	.	8B\L	.	4e/	.
.	.	.	.	8c\J	.	.	.
=82-	=82-	=82-	=82-	=82-	=82-	=82-	=82-
.	.	1A	-lis	1d	.	4f\	.
.	.	.	.	.	.	2g\	.
!	!	!	!	!	!	!LO:TX:t=P:problem=# above	!
.	.	.	.	.	.	4f#X\	.
2GG,</	-tris	1G	pec-	2B\	-tris	2g\	-tris
*	*	*	*	*	*	*	*Xij
2C/	qui	.	.	2c\	Qui	2e\	qui
=83-	=83-	=83-	=83-	=83-	=83-	=83-	=83-
*	*	*lig	*	*	*	*	*
2C/	tol-	1G	-ca-	2c\	tol-	2e\	tol-
2C/	-lis	.	.	2c\	-lis	2e\	-lis
1D	pec-	1F	.	1A	pec-	1d	.
*	*	*Xlig	*	*	*	*	*
=84-	=84-	=84-	=84-	=84-	=84-	=84-	=84-
!	!	!	!	!	!	!LO:TX:t=P:problem=# above	!
2AA/	-ca-	1E	-ta	1A	-ca-	1c#X	.
2AA/	-ta	.	.	.	.	.	.
1BB-X	mun-	1D	mun-	2F/	-ta	2d\	pec-
.	.	.	.	2G/	mun-	1d/	-ca
=85-	=85-	=85-	=85-	=85-	=85-	=85-	=85-
0AA	-di	1E	.	0A	-di	.	.
.	.	.	.	.	.	4c/ny	mun-
.	.	.	.	.	.	4B/	.
*	*	*custos:D	*	*	*	*	*
!	!	!	!	!	!	!LO:TX:t=P:problem=# above	!
.	.	1E	-di	.	.	1c#X	.
!	!	!LO:PB:g=original	!	!	!	!	!
=86-	=86-	=86-	=86-	=86-	=86-	=86-	=86-
*	*	*xywh-#533:1515,430,4369,1059	*	*	*	*	*
2r	.	1D	mi-	2.A/	Mi-	2d/	-di
*	*	*	*	*	*	*custos:e	*
2D/	mi-	.	.	.	.	1fny	mi-
.	.	.	.	4B/	-ſe-	.	.
1C	-ſe-	1G	-ſe-	1.c	-re-	.	.
!	!	!	!	!	!	!LO:PB:g=original	!
*	*	*	*	*	*	*xywh-#170:6068,692,4359,980	*
.	.	.	.	.	.	2e\	-ſe-
=87-	=87-	=87-	=87-	=87-	=87-	=87-	=87-
2C/	-re-	1G	-re-	.	.	2e\	-re-
2GG/	-re	.	.	2B/	-re	2d\	-re
1D	no-	1F,<	-re	1A	No-	1d	no-
=88-	=88-	=88-	=88-	=88-	=88-	=88-	=88-
0GG;	-bis	1G	no-	0B;	-bis	0d;	-bis.
.	.	1G,<	-bis	.	.	.	.
=89-	=89-	=89-	=89-	=89-	=89-	=89-	=89-
0r	.	1B	Qui	1re	.	1r	.
.	.	1E	tol-	2e\	Qui	2r	.
!	!	!	!	!	!	!LO:TX:t=P:problem=# below	!
.	.	.	.	1B/	.	2g#X\	Qui
=90-	=90-	=90-	=90-	=90-	=90-	=90-	=90-
!	!	!	!	!	!	!LO:TX:t=P:problem=# below	!
1E	Qui	1B	-lis	.	.	2g#X\	tol-
.	.	.	.	2e\	tol-	2g#\	-lis
*	*	*lig	*	*	*	*	*
1AA	toll	1c	pec-	2e\	-lis	2a\	.
.	.	.	.	1e\	p(ec-	1a\	pec-
=91-	=91-	=91-	=91-	=91-	=91-	=91-	=91-
*custos:F	*	*	*	*	*	*	*
1E	.	1B	.	.	.	.	.
!	!	!	!	!	!	!LO:TX:t=P:problem=# above	!
.	.	.	.	2.e\	-ca)-	2g#X\	.
!LO:PB:g=original	!	!	!	!	!	!	!
*xywh-#716:5926,561,4604,1003	*	*	*	*	*	*	*
*	*	*Xlig	*	*	*	*	*
1F	pec-	1A	-ca-	.	.	2a\	-c(a)-
.	.	.	.	8d\L	-ta	.	.
.	.	.	.	8c\J	.	.	.
*	*	*	*	*custos:e	*	*	*
.	.	.	.	2d\	Mun-	2a\	-ta
!	!	!	!	!LO:LB:g=original	!	!	!
=92-	=92-	=92-	=92-	=92-	=92-	=92-	=92-
*	*	*	*	*xywh-#358:1668,1479,4097,849	*	*	*
2E\	-ca-	1G	-ta	1e	-di	2rg	.
2C/	-ta	.	.	.	.	2e\	mu(n)-
*lig	*	*lig	*	*	*	*	*
1G	mun-	1B	mun-	1re	.	2d/	-di
.	.	.	.	.	.	2.e\	pec-
=93-	=93-	=93-	=93-	=93-	=93-	=93-	=93-
1F	.	1A	.	2rc	.	.	.
.	.	.	.	.	.	8d/	.
.	.	.	.	.	.	8c/ny	.
.	.	.	.	1A	Su-	2d\	-ca-
*Xlig	*	*Xlig	*	*	*	*	*
1E	-di	1B	-di	.	.	2e\	-ta
!	!	!	!	!LO:TX:t=P:problem=# below	!	!	!
.	.	.	.	2G#X/	-ſci-	2B/	m(un-
=94-	=94-	=94-	=94-	=94-	=94-	=94-	=94-
!	!	!	!	!LO:TX:t=P:problem=# below	!	!	!
1rF	.	1E	ſu-	1G#X	 pe	1B	-di):
2rD	.	1E	-ſci-	2rc	.	2rA	.
*	*	*	*	*	*ij	*	*
!	!	!	!	!	!	!LO:TX:t=P:problem=# above	!
1E\	ſu-	.	.	1e\	Su-	1g#X\	Su-
=95-	=95-	=95-	=95-	=95-	=95-	=95-	=95-
*	*	*custos:c	*	*	*	*	*
.	.	1B	-pe	.	.	.	.
2E\	-ſci-	.	.	2e\	-ſci-	2g#X\	-ſci-
!	!	!LO:LB:g=original	!	!	!	!	!
*	*	*xywh-#533:1508,1272,4376,1010	*	*	*	*	*
2AA/	-pe	1c	de-	1e	-pe	1a	-pe
*	*ij	*	*	*	*Xij	*	*
1AA/	ſu-	.	.	.	.	.	.
=96-	=96-	=96-	=96-	=96-	=96-	=96-	=96-
*	*	*	*	*	*	*	*ij
.	.	1A	-pre-	1c	Su-	2.e\	Su-
2AA/	-ſci-	.	.	.	.	.	.
.	.	.	.	.	.	4e\	-ſci-
1C	-pe	1G	-ca-	2c\	-ſci-	1e	-pe
*	*Xij	*	*	*	*	*	*Xij
.	.	.	.	2c\	-pe	.	.
=97-	=97-	=97-	=97-	=97-	=97-	=97-	=97-
2D/	de-	1F	-ti-	2A/	de-	2f\	de-
2D/	-pre-	.	.	2A/	-pre-	2d/	-pre-
2.AA/	-ca-	1A	-o-	2.e\	-ca-	2.c/	-ca-
4BB/ny	-ti-	.	.	4d\	-ti-	4d/	-ti-
=98-	=98-	=98-	=98-	=98-	=98-	=98-	=98-
2C/	-o-	1A,<	-ne(m)	2c/	  o-	2e\	-o-
2D/	-ne(m)	.	.	2A/	-nem	2d/	-ne(m)
1GG	noſ-	1G	n(ost)-	1B	Noſ-	1d	n(ost)-
=99-	=99-	=99-	=99-	=99-	=99-	=99-	=99-
!	!	!LO:TX:t=P:problem=kreska pseudotaktowa	!	!	!	!	!
1C;	-tra(m)	1G,<	-ram.	1c;	-tram	1e;	-ram.
*	*	*lig	*	*	*	*	*
!	!	!	!	!	!	!LO:LB:g=original	!
*	*	*	*	*	*	*xywh-#170:6095,1626,4394,851	*
1AA	Qui	1E	Qui	0A	Qui	1c	Qui
=100-	=100-	=100-	=100-	=100-	=100-	=100-	=100-
1D	ſe-	1F	.	.	.	1d	.
*	*	*Xlig	*	*	*	*	*
*	*	*lig	*	*	*	*	*
2AA/	-des	1E	.	2c/	.	2e\	ſe-
*	*ij	*	*	*	*	*	*
2C/	qui	.	.	2G/ny	ſe-	2.c/	-des
=101-	=101-	=101-	=101-	=101-	=101-	=101-	=101-
0GG	ſe-	1D	.	1G	-des	.	.
.	.	.	.	.	.	8B/	.
.	.	.	.	.	.	8A/	.
*	*	*	*	*	*	*	*ij
.	.	.	.	.	.	4B/	qui
.	.	.	.	.	.	4c/	.
*	*	*Xlig	*	*	*ij	*	*
.	.	1B	ſe-	1G	ſe-	1d	ſe-
=102-	=102-	=102-	=102-	=102-	=102-	=102-	=102-
*	*	*lig	*	*	*	*	*
2C/	-des	1c	.	2G/	-des	1e	-des
*	*Xij	*	*	*	*Xij	*	*Xij
4C/	qui	.	.	4E/	qui	.	.
*	*	*	*	*custos:G	*	*	*
4D/	.	.	.	4F/	.	.	.
!	!	!	!	!LO:LB:g=original	!	!	!
*	*	*	*	*xywh-#358:1585,2295,4213,816	*	*	*
4E\	.	1B	.	4G/	.	1e	ad
4F\	.	.	.	4A/	.	.	.
4G\	.	.	.	4B/	.	.	.
*custos:F	*	*	*	*	*	*	*
4E\	.	.	.	4G/	.	.	.
!LO:LB:g=original	!	!	!	!	!	!	!
*xywh-#716:5906,1383,4576,961	*	*	*	*	*	*	*
*	*	*Xlig	*	*	*	*	*
=103-	=103-	=103-	=103-	=103-	=103-	=103-	=103-
1F	ſe-	1A	.	2.A/	ſe-	2.c/	dex-
.	.	.	.	4B/	-des	4d/	.
*	*	*lig	*	*	*	*	*
2C/	-des	1G	.	1c	.	4e\	.
.	.	.	.	.	.	4f\	.
2C/	ad	.	.	.	.	4g\ny	.
.	.	.	.	.	.	4e\	.
=104-	=104-	=104-	=104-	=104-	=104-	=104-	=104-
2F\	dex-	1A	.	2c\	ad	4f\	-te-
.	.	.	.	.	.	4g\	-ram
4D/	-te-	.	.	4f\	dex-	1a	.
4F\	-ra(m)	.	.	8c\L	-te-	.	.
.	.	.	.	8d\J	.	.	.
*	*	*Xlig	*	*	*	*	*
0E	p(at)-	1B,<	-des	1e	-ram	.	.
.	.	.	.	.	.	4g\	Pa-
!	!	!	!	!	!	!LO:TX:t=P:problem=# above	!
.	.	.	.	.	.	4f#X\	.
=105-	=105-	=105-	=105-	=105-	=105-	=105-	=105-
.	.	1B	ad	1e	p(at-	1g	-tris
*	*	*lig	*	*	*	*	*
4AA/	-ris	1c	.	4e\	-r)is	4a\	.
*	*ij	*	*	*	*	*	*
4A\	ad	.	.	4c\	ad	4e/	ad
4F\	dex-	.	.	4A/	dex-	4f\ny	.
4A\	.	.	.	4c\	-te-	8e/	dex-
.	.	.	.	.	.	8f/	.
=106-	=106-	=106-	=106-	=106-	=106-	=106-	=106-
2G\	-te-	1d,<	.	2B/	-ra(m)	2g\	-te-
2F\	-ra(m)	.	.	2.c\	pa-	2a\	-ra(m)
*	*	*Xlig	*	*	*	*	*
*	*	*lig	*	*	*	*	*
1G	p(at)-	1d	dex-	.	.	1g	p(at)-
.	.	.	.	8B/L	.	.	.
.	.	.	.	8A/J	.	.	.
.	.	.	.	2B/	-tris	.	.
=107-	=107-	=107-	=107-	=107-	=107-	=107-	=107-
2C/	-ris	1c	.	2c\	.	2e\	-ris
*	*Xij	*	*	*	*	*	*ij
4C/	pa-	.	.	2e\	.	2g\	ad
4D/	.	.	.	.	.	.	.
*	*	*Xlig	*	*	*	*	*
*	*	*lig	*	*	*ij	*	*
4E\	.	1B	.	2e\	pa-	2.g\	dex-
4F\	.	.	.	.	.	.	.
2G\	.	.	.	2d\	.	.	.
.	.	.	.	.	.	4g\	-te-
=108-	=108-	=108-	=108-	=108-	=108-	=108-	=108-
1C	.	1c	.	1e	-tris	2e\	-ra(m)
.	.	.	.	.	.	1g	p(at)-
*	*	*Xlig	*	*	*	*	*
1D	.	1A	-te-	1d	pa-	.	.
!	!	!	!	!	!	!LO:TX:t=P:problem=# above	!
.	.	.	.	.	.	2f#X\	.
=109-	=109-	=109-	=109-	=109-	=109-	=109-	=109-
*	*	*	*	*	*	*custos:d	*
2GG/	-tris	1G,<	-ram	1B	-tris	1g	-ris
*	*	*	*	*	*Xij	*	*Xij
1G	mi-	.	.	.	.	.	.
*	*	*lig	*	*	*	*	*
!	!	!	!	!	!	!LO:LB:g=original	!
*	*	*	*	*	*	*xywh-#170:6116,2457,4285,844	*
.	.	1B	Pa-	1r	.	2.d/	mi-
2G\	-ſe-	.	.	.	.	.	.
.	.	.	.	.	.	4d/	-ſe-
=110-	=110-	=110-	=110-	=110-	=110-	=110-	=110-
2.F\	-re-	1A	.	2.c\	Mi-	2f\ny	.
.	.	.	.	.	.	1a	-re-
*	*	*	*	*custos:e	*	*	*
4F\	-re	.	.	4d\	-ſe:-	.	.
*	*	*Xlig	*	*	*	*	*
*	*	*custos:B	*	*	*	*	*
!	!	!	!	!LO:LB:g=original	!	!	!
*	*	*	*	*xywh-#358:1569,3071,4229,849	*	*	*
0E	no-	1B,<	-tris	2e\	-re-	.	.
.	.	.	.	2e\	-re	4g\	.
!	!	!	!	!	!	!LO:TX:t=P:problem=# above	!
.	.	.	.	.	.	4f#X\	-re
!	!	!LO:LB:g=original	!	!	!	!	!
=111-	=111-	=111-	=111-	=111-	=111-	=111-	=111-
*	*	*xywh-#533:1374,2141,4552,925	*	*	*	*	*
.	.	1B	mi-	1e	no-	1g	no-
2AA/	-bis	1c	-ſe-	2e\	-bis	2a\	-bis
*	*ij	*	*	*	*ij	*	*
2A\	mi-	.	.	1e\	mi-	2.a\	mi-
=112-	=112-	=112-	=112-	=112-	=112-	=112-	=112-
2E\	-ſe-	1B	.	.	.	.	.
.	.	.	.	.	.	4g\	.
2G\	-re-	.	.	2d\	-ſe-	2.g\	-ſe-
2D/	-re	1A	-re-	2.d\	-re-	.	.
.	.	.	.	.	.	4f\ny	-re-
2F\	no-	.	.	.	.	2.f\	-re
.	.	.	.	4c\	-re	.	.
=113-	=113-	=113-	=113-	=113-	=113-	=113-	=113-
*custos:D	*	*	*	*	*	*	*
1C	-bis	1G	-re	1c	no-	.	.
*	*Xij	*	*	*	*	*	*
.	.	.	.	.	.	8e\	no-
.	.	.	.	.	.	8d\	.
.	.	.	.	.	.	2e\	-bis
!LO:LB:g=original	!	!	!	!	!	!	!
*xywh-#716:5941,2302,4604,863	*	*	*	*	*	*	*
2.D/	mi-	1F	.	2A/	-bis	2d/	.
*	*	*	*	*	*Xij	*	*ij
.	.	.	.	2.d\	Mi-	2.f\	mi-
4D/	-ſe-	.	.	.	.	.	.
=114-	=114-	=114-	=114-	=114-	=114-	=114-	=114-
2.AA/	-re-	1A	.	.	.	.	.
.	.	.	.	4c\	-ſe-	4e\	-ſe-
.	.	.	.	2.c\	-re-	2e\	-re-
4BB/	-re	.	.	.	.	.	.
1C	no-	1G	no-	.	.	2e\	-re
.	.	.	.	4A/	-re	.	.
.	.	.	.	2c\	no-	2e\	no-
=115-	=115-	=115-	=115-	=115-	=115-	=115-	=115-
!	!	!LO:TX:t=P:problem=kreska pseudotaktowa	!	!	!	!	!
1GG;	-bis	1G	-bis.	1B;	-bis	1d;	-bis
*	*	*	*	*	*	*	*Xij
1C	Quo-	1E	Quo-	2G/	Quo-	2.c/	Q(uo)-
.	.	.	.	1A/	-ni-	.	.
.	.	.	.	.	.	4c/	-ni-
=116-	=116-	=116-	=116-	=116-	=116-	=116-	=116-
1D	-ni-	1F	-ni-	.	.	1f	-(am)
.	.	.	.	1B	-am	.	.
1E	-a(m)	1G	-a(m)	.	.	1e	tu
.	.	.	.	2c\	tu	.	.
=117-	=117-	=117-	=117-	=117-	=117-	=117-	=117-
1AA	tu	1A	tu	2e\	ſo-	1c	.
.	.	.	.	2e\	-lus	.	.
*	*	*lig	*	*	*	*	*
2BB/	ſo-	1G	ſo-	2r	.	2d\	.
*	*	*	*	*	*	*custos:f	*
2C/	-l(us)	.	.	2c\	tu	2e\	.
!	!	!	!	!	!	!LO:LB:g=original	!
=118-	=118-	=118-	=118-	=118-	=118-	=118-	=118-
*	*	*	*	*	*	*xywh-#170:6054,3179,4394,953	*
1D	ſanc-	1F	.	2.A/	ſo-	2f\	tu
.	.	.	.	.	.	2d/	ſo-
.	.	.	.	4B/	-lus	.	.
*	*	*Xlig	*	*	*	*	*
*	*	*lig	*	*	*	*	*
*	*	*	*	*custos:G	*	*	*
2C/	-t(us)	1E	.	2c\	ſan:-	2e/	.
!	!	!	!	!LO:PB:g=original	!	!	!
*	*	*	*	*xywh-#358:5963,549,4410,989	*	*	*
2C/	tu	.	.	2G/	-ctus	1c/	-lus
=119-	=119-	=119-	=119-	=119-	=119-	=119-	=119-
2FF/	ſo-	1F	.	1A	tu	.	.
2FF/	-lus	.	.	.	.	2c/	Sanc-
*	*	*Xlig	*	*	*	*	*
1BB-X	San-	1D	-lus	2.F/	ſo-	1d	.
.	.	.	.	4G/	-lus	.	.
=120-	=120-	=120-	=120-	=120-	=120-	=120-	=120-
*	*	*lig	*	*	*	*	*
0AA	.	1E	Sanc-	0A	ſanc-	2.c/	-tus
.	.	.	.	.	.	4B/	.
*	*	*	*	*	*	*	*ij
.	.	1F	.	.	.	2A/	Sanc-
.	.	.	.	.	.	2c/	.
*	*	*Xlig	*	*	*	*	*
=121-	=121-	=121-	=121-	=121-	=121-	=121-	=121-
0GG	-ct(us)	1G,<	-t(us)	0D	-tus	1B	-tus
*	*	*	*	*	*	*	*Xij
.	.	1B	Tu	.	.	1r	.
=122-	=122-	=122-	=122-	=122-	=122-	=122-	=122-
1r	.	1E	ſo-	1r	.	2r	.
!	!	!	!	!	!	!LO:TX:t=P:problem=# below	!
.	.	.	.	.	.	2g#X\	tu
!	!	!	!	!	!	!LO:TX:t=P:problem=# below	!
1E	tu	1B,<	-lus	1e	tu	2g#X\	ſo-
.	.	.	.	.	.	2g#\	-lus
=123-	=123-	=123-	=123-	=123-	=123-	=123-	=123-
*	*	*lig	*	*	*	*	*
1AA	ſo-	1c	Do-	1.e	ſo-	1.a	Do-
1E	-l(us)	1B	.	.	.	.	.
.	.	.	.	2e\	-lus	2g\ny	.
*	*	*Xlig	*	*	*	*	*
=124-	=124-	=124-	=124-	=124-	=124-	=124-	=124-
*	*	*lig	*	*	*	*	*
1F	do-	1A	.	2c\	Do-	2a\	-mi-
.	.	.	.	2d\	-mi-	2f\	-nus
1E	.	1G	.	2e\	-nus	2g\	.
*	*	*	*	*	*	*	*ij
.	.	.	.	2c\	tu	2e/	Do-
*	*	*Xlig	*	*	*	*	*
=125-	=125-	=125-	=125-	=125-	=125-	=125-	=125-
*lig	*	*lig	*	*	*	*	*
1D	-mi-	1F	-mi-	2A/	ſo-	1.f	.
.	.	.	.	2B/	-lus	.	.
1C	.	1G	.	1.c	al-	.	.
.	.	.	.	.	.	4e/	-mi-
.	.	.	.	.	.	4d/	.
*Xlig	*	*Xlig	*	*	*	*	*
=126-	=126-	=126-	=126-	=126-	=126-	=126-	=126-
2C/	-n(us)	1G,<	-nus	.	.	2e/	-nus
*	*	*	*	*	*	*	*Xij
2G\	tu	.	.	4B/	.	2g\	tu
.	.	.	.	4A/	.	.	.
2G\	ſo-	1d	tu	1B	.	2g\	ſo-
*custos:C	*	*	*	*	*	*custos:g	*
2G\	-l(us)	.	.	.	.	2g\	-lus
!LO:LB:g=original	!	!	!	!	!	!LO:PB:g=original	!
=127-	=127-	=127-	=127-	=127-	=127-	=127-	=127-
*xywh-#716:5885,3053,4674,849	*	*	*	*	*	*xywh-#171:1403,758,4381,964	*
*lig	*	*lig	*	*	*	*	*
1C	al-	1e	.	2.c\	.	2g\	al-
.	.	.	.	.	.	1g	-tiſ-
.	.	.	.	4B/	.	.	.
1D	.	1d,	.	1A	.	.	.
!	!	!	!	!	!	!LO:TX:t=P:problem=# above	!
.	.	.	.	.	.	2f#X\	-si-
*Xlig	*	*Xlig	*	*	*	*	*
=128-	=128-	=128-	=128-	=128-	=128-	=128-	=128-
2.E\	-tiſ-	1G	ſo-	1e	-tiſ-	2g\	-mus
.	.	.	.	.	.	1g	Je-
4F\	.	.	.	.	.	.	.
*	*	*custos:d	*	*	*	*	*
2G\	.	1B,	-lus	2d\	-si-	.	.
*	*	*	*	*custos:A	*	*	*
2E\	.	.	.	2G/	-mus	2g\	-ſu
!	!	!LO:LB:g=original	!	!LO:LB:g=original	!	!	!
=129-	=129-	=129-	=129-	=129-	=129-	=129-	=129-
*	*	*xywh-#533:1143,2955,4804,827	*	*xywh-#358:5922,1514,4427,832	*	*	*
1D	-ſi-	1d	Al-	2A/	Je-	1fny	Chr(i-
.	.	.	.	2B/	-su	.	.
*	*	*lig	*	*	*	*	*
2C/	-m(us)	1e	-tiſ-	1c	Chr(i-	2e\	-st)e
1c\	Je-	.	.	.	.	1g\	.
=130-	=130-	=130-	=130-	=130-	=130-	=130-	=130-
.	.	1d	.	1G	-st)e	.	.
2B\	-ſu	.	.	.	.	2g\	.
*	*	*Xlig	*	*	*	*	*
1A	Chri-	1c	.	2r	.	2.e\	.
.	.	.	.	1e\	Je-	.	.
.	.	.	.	.	.	4f\	.
=131-	=131-	=131-	=131-	=131-	=131-	=131-	=131-
1G	-ſte.	1B	-s(i-	.	.	2g\	.
.	.	.	.	1d	.	2g\	Je-
1rA	.	1A,<	-m)us	.	.	2f\	-ſu
!	!	!	!	!LO:TX:t=P:problem=# above	!	!	!
.	.	.	.	2c#X\	-su	2e\	.
=132-	=132-	=132-	=132-	=132-	=132-	=132-	=132-
*	*ij	*	*	*	*	*	*
1G	Je-	1B	Je-	2d\	Chr(i-	1d	Chr(i-
.	.	.	.	2G/	-st)e	.	.
2F\	-ſu	1c	-ſu	2c\ny	.	2a\	-st)e
*	*	*	*	*	*	*	*ij
2E\	.	.	.	2G/	.	2.g\	Je-
=133-	=133-	=133-	=133-	=133-	=133-	=133-	=133-
*	*	*lig	*	*	*	*	*
1D	Chri-	1d	Chr(i-	1A	.	.	.
.	.	.	.	.	.	8f\	-ſu
.	.	.	.	.	.	8e\	.
.	.	.	.	.	.	2f\	Chr(i-
*	*	*	*	*	*	*custos:g	*
0E 0EE;	-ſte	1B	.	0G;	.	0g;	-st)e
*	*Xij	*Xlig	*	*	*	*	*Xij
=134-	=134-	=134-	=134-	=134-	=134-	=134-	=134-
!	!	!LO:TX:t=P:problem=kreska pseudotaktowa	!	!	!	!	!
.	.	1G	-st)e.	.	.	.	.
!	!	!	!	!	!	!LO:LB:g=original	!
*	*	*	*	*	*	*xywh-#171:1550,1650,4316,850	*
2G\	Cum	1d	Cum	2.B/	Cum	1g	Cum
1G\	ſanc-	.	.	.	.	.	.
.	.	.	.	4c\	.	.	.
=135-	=135-	=135-	=135-	=135-	=135-	=135-	=135-
*	*	*lig	*	*	*	*	*
.	.	1B	ſ(an)c-	2d\	.	2.d/	Sanc-
2G\	-to	.	.	2G/	Sanc-	.	.
.	.	.	.	.	.	4e/	.
2F\	Spi-	1c	.	4A/	-to	2f\	-to
.	.	.	.	4B/	.	.	.
2A\	.	.	.	2.c\	Spi-	4e\	.
.	.	.	.	.	.	4f\	ſpi-
*	*	*Xlig	*	*	*	*	*
=136-	=136-	=136-	=136-	=136-	=136-	=136-	=136-
1G	-ri-	1d	-to	.	.	2.g\	.
.	.	.	.	8B/L	.	.	.
.	.	.	.	8A/J	.	.	.
.	.	.	.	2B/	.	.	.
.	.	.	.	.	.	4g\	-ri-
*	*	*lig	*	*	*	*	*
!	!	!	!	!	!	!LO:TX:t=P:problem=kreska pseudotaktowa	!
2C/	-tu	1e	Spi-	1c	-ri-	1g	-tu
1c\	Spi-	.	.	.	.	.	.
=137-	=137-	=137-	=137-	=137-	=137-	=137-	=137-
.	.	1d	.	1G	-tu	2re	.
*	*	*	*	*	*	*	*ij
2B\	.	.	.	.	.	2g\	Cum
*	*	*Xlig	*	*	*	*	*
*	*	*lig	*	*	*	*	*
1A	-ri-	1c	-ri-	2r	.	2e\	Sanc-
.	.	.	.	2c\	in	2f\	-to
=138-	=138-	=138-	=138-	=138-	=138-	=138-	=138-
1G	-tu	1B	.	2.d\	glo-	2.g\	ſpi-
*	*	*	*	*custos:e	*	*	*
.	.	.	.	4d\	-ri:-	4g\	-ri-
*	*	*Xlig	*	*	*	*	*
!	!	!	!	!LO:LB:g=original	!	!	!
*	*	*	*	*xywh-#358:5930,2297,4394,898	*	*	*
1C	in	1c	-tu	2e\	-a	2g\	-tu
*	*	*	*	*	*	*	*Xij
.	.	.	.	2.c\	glo-	2e\	in
=139-	=139-	=139-	=139-	=139-	=139-	=139-	=139-
1.G	glo-	1d,	.	.	.	0g	glo-
.	.	.	.	8B/L	.	.	.
.	.	.	.	8A/J	.	.	.
.	.	.	.	4B/	.	.	.
.	.	.	.	4c/	.	.	.
.	.	1B,	in	2.d\	.	.	.
*custos:D	*	*	*	*	*	*	*
2G\	-ri-	.	.	.	.	.	.
.	.	.	.	4G/	-ri-	.	.
!LO:PB:g=original	!	!	!	!	!	!	!
=140-	=140-	=140-	=140-	=140-	=140-	=140-	=140-
*xywh-#717:1047,577,4739,1001	*	*	*	*	*	*	*
1D	-a	1d	glo-	1A	-a	1f	-ri-
2.A\	De-	1c	-ri-	2rc	.	2e\	-a
.	.	.	.	2f\	De-	2.a\	De-
4F\	-i	.	.	.	.	.	.
=141-	=141-	=141-	=141-	=141-	=141-	=141-	=141-
2G\	pa-	1B	.	2d\	-i	.	.
.	.	.	.	.	.	4g\	-i
2E\	-tris	.	.	2.e\	pa-	2.g\	Pa-
1F	A-	1A	.	.	.	.	.
*	*	*	*	*	*	*custos:f	*
.	.	.	.	4c\	-tris	4f\	-tris
!	!	!	!	!	!	!LO:LB:g=original	!
*	*	*	*	*	*	*xywh-#171:1616,2426,4218,833	*
.	.	.	.	1c\	a-	1f\	a-
=142-	=142-	=142-	=142-	=142-	=142-	=142-	=142-
*	*	*lig	*	*	*	*	*
1C	-men	1G	.	.	.	.	.
.	.	.	.	2c\	-men	4e/	.
.	.	.	.	.	.	4d/	.
2r	.	1A	.	1c	.	1e	-men
*	*ij	*	*	*	*	*	*
1AA/	De-	.	.	.	.	.	.
*	*	*Xlig	*	*	*	*	*
=143-	=143-	=143-	=143-	=143-	=143-	=143-	=143-
.	.	1E	-a	2rc	.	2re	.
*	*	*	*	*	*ij	*	*
2AA/	-i	.	.	1A	De-	1c	De-
*	*	*lig	*	*	*	*	*
2.FF/	pa-	1F	.	.	.	.	.
.	.	.	.	2.A/	-i	2c/	-i
4GG/	.	.	.	.	.	.	.
=144-	=144-	=144-	=144-	=144-	=144-	=144-	=144-
4AA/	.	1E,<	.	.	.	4c/	.
4BB/ny	.	.	.	8G/L	pa-	8B/	.
.	.	.	.	8F/J	.	8A/	.
2C/	-tris	.	.	4E/	.	4G/	.
.	.	.	.	4F/	-tris	4A/	.
*	*	*Xlig	*	*	*	*	*
*	*	*lig	*	*	*	*	*
1GG	A-	1D	De-	1G	pa-	4B/	.
.	.	.	.	.	.	2c/	.
.	.	.	.	.	.	4B/	.
=145-	=145-	=145-	=145-	=145-	=145-	=145-	=145-
2C/	-men	1E	.	1G	-tris	2c/	.
*	*Xij	*	*	*	*	*	*
1C	De-	.	.	.	.	1e	De-
*	*	*Xlig	*	*	*Xij	*	*
*	*	*lig	*	*	*	*	*
.	.	1G	.	1.c	De-	.	.
2C/	-i	.	.	.	.	2e\	-i
=146-	=146-	=146-	=146-	=146-	=146-	=146-	=146-
2F\	Pa-	1A	.	.	.	1f	Pa-
2D/	-tris	.	.	2d\	-i	.	.
*	*	*Xlig	*	*	*	*	*
2E\	A-	1G	.	2B\	pa-	2e\	-tris
2C,</	-men	.	.	2c\	-tris	2.e\	.
=147-	=147-	=147-	=147-	=147-	=147-	=147-	=147-
1D	A-	1F	-i	1A	a-	.	.
.	.	.	.	.	.	8d/	a-
*	*	*	*	*	*	*custos:d	*
.	.	.	.	.	.	8c/	.
!	!	!	!	!	!	!LO:LB:g=original	!
*	*	*	*	*	*	*xywh-#171:1510,3252,4373,866	*
.	.	.	.	.	.	2d/	-men
1AA,<	-men	1E	.	1c	-men	2e/	.
.	.	.	.	.	.	1c/	.
=148-	=148-	=148-	=148-	=148-	=148-	=148-	=148-
*	*	*	*	*custos:F	*	*	*
2FF/	De-	1F,<	.	1A	.	.	.
2FF/	-i	.	.	.	.	2c/	.
*	*	*lig	*	*	*ij	*	*
!	!	!	!	!LO:LB:g=original	!	!	!
*	*	*	*	*xywh-#358:5996,3154,4369,742	*	*	*
1BB-X	pa-	1D	Pa-	2.F/	De-	1d	.
.	.	.	.	4G/	.	.	.
=149-	=149-	=149-	=149-	=149-	=149-	=149-	=149-
1AA	-tris	1E	.	2A/	.	1c	.
.	.	.	.	2A/	-i	.	.
*	*	*Xlig	*	*	*	*	*
*custos:FF	*	*custos:A	*	*	*	*	*
1GG	A:-	1G	.	2.D/	pa-	1B-X	.
.	.	.	.	4E/	.	.	.
!LO:LB:g=original	!	!LO:LB:g=original	!	!	!	!	!
=150-	=150-	=150-	=150-	=150-	=150-	=150-	=150-
*	*	*lig	*	*	*	*	*
*^	*	*	*	*	*	*	*
*xywh-#717:1067,1430,4691,907	*xywh-#717:1067,1430,4691,907	*	*xywh-#533:3086,3600,2160,561	*	*	*	*	*
*	*2\right	*	*	*	*	*	*	*
2FF/	2F\	-men	1A	.	4F/	.	2A/	.
.	.	.	.	.	4G/	.	.	.
*	*2\left	*	*	*	*	*	*	*
*v	*v	*	*	*	*	*	*	*
*	*ij	*	*	*	*	*	*ij
2F\	De-	.	.	2A/	.	2f\	De-
2G\	-i	1B	.	2G/	-tris	2d/	-i
1E\	pa-	.	.	1G/	De-	1g\	pa-
*	*	*Xlig	*	*	*	*	*
=151-	=151-	=151-	=151-	=151-	=151-	=151-	=151-
*	*	*lig	*	*	*	*	*
.	.	1c	.	.	.	.	.
2F\	-tris	.	.	2A/	-i	4f\	-tris
.	.	.	.	.	.	4e\	.
1G	A-	1B	.	2B/	pa-	2.d/	a-
.	.	.	.	2G/	.	.	.
.	.	.	.	.	.	4e\	.
*	*	*Xlig	*	*	*	*	*
=152-	=152-	=152-	=152-	=152-	=152-	=152-	=152-
*	*	*lig	*	*	*	*	*
2D,</	-men	1A	-tris	2d\	-tris	2f\	-men
*	*Xij	*	*	*	*Xij	*	*Xij
1F	De-	.	.	2A/	De-	2c/	De-
.	.	1G,<	.	2B/	-i	2d/	-i
2E\	-i	.	.	2c\	pa-	2e\	pa-
*	*	*Xlig	*	*	*	*	*
=153-	=153-	=153-	=153-	=153-	=153-	=153-	=153-
*	*	*lig	*	*	*	*	*
*	*	*	*	*	*	*custos:d	*
0D	pa-	1F	A-	0d	.	2f\	-tris
!	!	!	!	!	!	!LO:PB:g=original	!
*	*	*	*	*	*	*xywh-#171:6005,681,4586,948	*
.	.	.	.	.	.	4d\	a-
.	.	.	.	.	.	4e\	.
.	.	1A	.	.	.	4f\	.
.	.	.	.	.	.	4g\	.
.	.	.	.	.	.	4a\	.
.	.	.	.	.	.	4f\	.
*	*	*Xlig	*	*	*	*	*
=154-	=154-	=154-	=154-	=154-	=154-	=154-	=154-
*	*	*lig	*	*	*	*	*
1G,	-tris	1B-X	.	1d	-tris	4g\	.
.	.	.	.	.	.	4d/	.
.	.	.	.	.	.	1g	.
2.D/	A-	1A	.	2rc	.	.	.
!	!	!	!	!	!	!LO:TX:t=P:problem=# above	!
.	.	.	.	1d\	De-	2f#X\	-men
4C/	.	.	.	.	.	.	.
*	*	*Xlig	*	*	*	*	*
=155-	=155-	=155-	=155-	=155-	=155-	=155-	=155-
*	*	*lig	*	*	*	*	*
2BB/ny	.	1G	.	.	.	2g\	.
2C/	.	.	.	1c	.	1e	.
1AA	.	1F	.	.	.	.	.
.	.	.	.	2A/	-i	4d/	a-
.	.	.	.	.	.	4c/	.
*	*	*Xlig	*	*	*	*	*
=156-	=156-	=156-	=156-	=156-	=156-	=156-	=156-
1GG	.	00G;	-men	2B/	p(at-	1Bny	.
.	.	.	.	2d\	-r)is	.	.
1C	.	.	.	2G/	a-	1e	.
.	.	.	.	1c\	-men.	.	.
=157-	=157-	=157-	=157-	=157-	=157-	=157-	=157-
0GG	-men	.	.	.	.	0d	-men
.	.	.	.	4B/	.	.	.
.	.	.	.	4A/	.	.	.
.	.	.	.	1B;	.	.	.
=-	=-	=-	=-	=-	=-	=-	=-
*-	*-	*-	*-	*-	*-	*-	*-
!!!system-decoration: [(s1,s2,s3,s4)]
!!!RDF**kern: > = above
!!!RDF**kern: < = below
!!!ENC: Mateusz Solarz
!!!END: 2022-03-16
!!!EED: Antoni Szymański
!!!EEV: 2022-03-20
!!!ENC-iiif: Jan Barakat
!!!END-iiif: 2022-09-01
!!!YEC: Copyright 2022 Narodowy Instytut Fryderyka Chopina (https://polishscores.org)
!!!YEM: License CC-BY-4.0 (https://creativecommons.org/licenses/by/4.0)
